docs/public/static/branding/base-ui/headless-ui.svg

<svg fill="none" height="37" viewBox="0 0 116 37" width="116" xmlns="http://www.w3.org/2000/svg" xmlns:xlink="http://www.w3.org/1999/xlink"><linearGradient id="a"><stop offset="0" stop-color="#66e3ff"/><stop offset="1" stop-color="#7064f9"/></linearGradient><linearGradient id="b" gradientUnits="userSpaceOnUse" x1="18.3517" x2="20.8912" xlink:href="#a" y1="10.5" y2="26.3665"/><linearGradient id="c" gradientUnits="userSpaceOnUse" x1="18.3469" x2="20.8864" xlink:href="#a" y1="10.5002" y2="26.3667"/><clipPath id="d"><path d="m12 10.5h92v16h-92z"/></clipPath><mask id="e" height="17" maskUnits="userSpaceOnUse" width="93" x="11" y="10"><path d="m11.9922 10.5002h91.9998v16h-91.9998z" fill="#fff"/></mask><rect fill="#fff" height="36" rx="7.5" width="115" x=".5" y=".5"/><g clip-path="url(#d)"><g mask="url(#e)"><g fill="#7064f9"><path d="m36.8927 15.7051c-.9925 0-1.7805.365-2.262 1.124v-3.854h-1.576v10.2185h1.576v-3.912c0-1.489.817-2.102 1.853-2.102.9925 0 1.635.5835 1.635 1.693v4.321h1.5755v-4.4815c0-1.8975-1.167-3.007-2.8015-3.007zm5.3745 4.5105h5.808c.029-.2045.0585-.438.0585-.657 0-2.102-1.4885-3.8535-3.663-3.8535-2.291 0-3.8525 1.6785-3.8525 3.839 0 2.19 1.5615 3.839 3.969 3.839 1.43 0 2.525-.5985 3.196-1.591l-1.2985-.759c-.35.511-1.007.905-1.8825.905-1.1675 0-2.087-.584-2.335-1.7225zm-.015-1.285c.219-1.0945 1.022-1.795 2.204-1.795.9485 0 1.8675.54 2.0865 1.795h-4.2895zm12.6395-3.0355v1.036c-.555-.759-1.4155-1.226-2.554-1.226-1.985 0-3.6335 1.664-3.6335 3.839 0 2.16 1.649 3.839 3.6335 3.839 1.1385 0 1.9995-.467 2.554-1.2405v1.051h1.576v-7.299h-1.576zm-2.306 5.985c-1.313 0-2.3055-.9785-2.3055-2.336s.9925-2.3355 2.3055-2.3355c1.3135 0 2.306.978 2.306 2.3355s-.9925 2.336-2.306 2.336zm11.133-8.905v3.956c-.5545-.759-1.4155-1.226-2.554-1.226-1.9845 0-3.6335 1.664-3.6335 3.839 0 2.16 1.649 3.839 3.6335 3.839 1.1385 0 1.9995-.467 2.554-1.2405v1.051h1.576v-10.2185zm-2.3055 8.905c-1.3135 0-2.306-.9785-2.306-2.336s.9925-2.3355 2.306-2.3355c1.313 0 2.3055.978 2.3055 2.3355s-.9925 2.336-2.3055 2.336zm5.3535 1.3135h1.5765v-10.656h-1.5765zm4.282-2.978h5.808c.029-.2045.0585-.438.0585-.657 0-2.102-1.4885-3.8535-3.663-3.8535-2.291 0-3.8525 1.6785-3.8525 3.839 0 2.19 1.5615 3.839 3.969 3.839 1.43 0 2.5245-.5985 3.196-1.591l-1.299-.759c-.35.511-1.0065.905-1.8825.905-1.167 0-2.0865-.584-2.3345-1.7225zm-.015-1.285c.219-1.0945 1.022-1.795 2.204-1.795.9485 0 1.8675.54 2.0865 1.795zm8.0335-1.0215c0-.525.4965-.7735 1.0655-.7735.5985 0 1.109.2625 1.372.832l1.328-.7445c-.511-.9635-1.5035-1.518-2.7-1.518-1.4885 0-2.6705.861-2.6705 2.2335 0 2.6125 3.9255 1.883 3.9255 3.182 0 .584-.54.8175-1.2405.8175-.8025 0-1.386-.394-1.6195-1.051l-1.3575.788c.467 1.051 1.518 1.708 2.977 1.708 1.576 0 2.846-.788 2.846-2.248 0-2.7-3.926-1.8975-3.926-3.226zm5.92 0c0-.525.4965-.7735 1.0655-.7735.598 0 1.109.2625 1.3715.832l1.328-.7445c-.5105-.9635-1.503-1.518-2.6995-1.518-1.4885 0-2.6705.861-2.6705 2.2335 0 2.6125 3.9255 1.883 3.9255 3.182 0 .584-.54.8175-1.2405.8175-.8025 0-1.3865-.394-1.62-1.051l-1.357.788c.467 1.051 1.5175 1.708 2.977 1.708 1.576 0 2.8455-.788 2.8455-2.248 0-2.7-3.9255-1.8975-3.9255-3.226zm12.021 3.601c1.0935 0 1.903-.654 1.903-1.7265v-3.345h-.98v3.267c0 .483-.2555.845-.923.845s-.9235-.362-.9235-.845v-3.2675h-.9725v3.3455c0 1.0725.8095 1.7265 1.896 1.7265zm2.9275-5.072v4.972h.9803v-4.972z"/><path clip-rule="evenodd" d="m100.529 14.0533h-5.0719c-.5381.0002-1.0541.214-1.4346.5945-.3805.3804-.5943.8964-.5944 1.4345v5.074c.0001.5381.2139 1.0541.5944 1.4346s.8965.5943 1.4346.5944h5.0719c.538-.0001 1.054-.2139 1.435-.5944.38-.3805.594-.8965.594-1.4346v-5.0735c0-.2665-.052-.5304-.154-.7767-.102-.2462-.252-.47-.44-.6585s-.412-.338-.658-.4401c-.247-.102-.51-.1541-.777-.1542zm-5.0719-1.015c-.3997.0001-.7955.0789-1.1647.2319s-.7047.3772-.9873.6599c-.2825.2827-.5067.6182-.6596.9875-.1528.3693-.2315.7651-.2314 1.1647v5.074c-.0001.3997.0786.7955.2314 1.1648.1529.3692.3771.7048.6596.9875.2826.2826.6181.5069.9873.6599s.765.2318 1.1647.2318h5.0719c.4 0 .796-.0787 1.165-.2317s.705-.3772.987-.6599c.283-.2826.507-.6182.66-.9875s.232-.7651.232-1.1649v-5.0735c0-.3997-.079-.7956-.232-1.165-.153-.3693-.377-.705-.66-.9877-.282-.2827-.618-.507-.987-.66s-.765-.2318-1.165-.2318z" fill-rule="evenodd"/><path clip-rule="evenodd" d="m95.4571 14.0533h5.0719c.538.0002 1.054.214 1.435.5945.38.3804.594.8964.594 1.4345v5.074c0 .5381-.214 1.0541-.594 1.4346-.381.3805-.897.5943-1.435.5944h-5.0719c-.5381-.0001-1.0541-.2139-1.4346-.5944s-.5943-.8965-.5944-1.4346v-5.0735c-.0001-.2665.0523-.5304.1543-.7767.1019-.2462.2513-.47.4397-.6585.1885-.1885.4121-.338.6584-.4401.2462-.102.51-.1541.7766-.1542zm-3.043 2.029c-.0001-.3996.0786-.7954.2314-1.1647.1529-.3693.3771-.7048.6596-.9875.2826-.2827.6181-.5069.9873-.6599s.765-.2318 1.1647-.2319h5.0719c.4 0 .796.0788 1.165.2318.369.1529.705.3772.987.6598.283.2827.507.6183.66.9876s.232.7651.232 1.1648v5.074c0 .3998-.079.7956-.232 1.1649s-.377.7049-.66.9875c-.282.2827-.618.5069-.987.6599s-.765.2317-1.165.2317h-5.0719c-.3997 0-.7955-.0788-1.1647-.2318s-.7047-.3773-.9873-.6599c-.2825-.2827-.5067-.6183-.6596-.9875-.1528-.3693-.2315-.7651-.2314-1.1648v-5.0735z" fill-rule="evenodd"/></g><path d="m15.2542 20.4415 9.7599-3.259c-.195-1.22-.334-2.035-.495-2.657-.1735-.669-.311-.848-.3649-.91-.1882-.2154-.4225-.3856-.6856-.498-.076-.0325-.289-.108-.978-.0665-.729.044-1.686.193-3.2015.433-1.515.24-2.4714.3945-3.1779.5775-.6685.1735-.848.3115-.91.3655-.215.1885-.385.4225-.4975.6855-.0325.076-.108.289-.0665.9785.044.729.193 1.6865.433 3.202.067.425.1275.805.184 1.1485z" fill="url(#b)"/><path clip-rule="evenodd" d="m12.5584 19.6902c-.464-2.932-.6965-4.398-.1935-5.575.2622-.6139.6594-1.1607 1.162-1.6.9635-.8415 2.429-1.0735 5.36-1.538 2.932-.465 4.3975-.697 5.575-.194.6135.2623 1.16.6595 1.599 1.162.842.964 1.074 2.43 1.538 5.3625.4645 2.932.6965 4.3985.1935 5.575-.2621.6138-.6591 1.1607-1.1615 1.6-.9635.842-2.4295 1.074-5.361 1.5385-2.931.4645-4.397.6965-5.5735.1935-.6135-.2623-1.1601-.6595-1.599-1.162-.842-.964-1.0745-2.43-1.539-5.3625zm5.1705 5.207c.785-.0475 1.796-.206 3.2925-.443 1.497-.237 2.5065-.399 3.2685-.5965.7375-.1915 1.0775-.378 1.297-.57.3229-.2824.5781-.6339.7465-1.0285.115-.268.1875-.649.1415-1.41-.0475-.785-.206-1.7965-.443-3.2935s-.3985-2.5075-.596-3.269c-.1915-.738-.3785-1.078-.57-1.2975-.2822-.3231-.6336-.5784-1.028-.747-.268-.115-.649-.1875-1.41-.1415-.785.0475-1.7955.206-3.2925.443-1.4965.2375-2.5065.399-3.268.5965-.738.1915-1.0775.3785-1.297.57-.3231.2824-.5784.6339-.747 1.0285-.1145.268-.187.649-.141 1.41.0475.7855.2055 1.7965.443 3.2935.237 1.497.3985 2.5075.596 3.269.1915.738.378 1.078.57 1.2975.2822.3231.6336.5784 1.028.747.268.115.648.1875 1.4095.1415z" fill="url(#c)" fill-rule="evenodd"/></g></g><rect height="36" rx="7.5" stroke="#e0e3e7" stroke-dasharray="4 4" width="115" x=".5" y=".5"/></svg>

<svg width="116" height="37" viewBox="0 0 116 37" fill="none" xmlns="http://www.w3.org/2000/svg">
<rect x="0.5" y="0.5" width="115" height="36" rx="7.5" fill="white"/>
<g clip-path="url(#clip0_6585_829046)">
<mask id="mask0_6585_829046" style="mask-type:luminance" maskUnits="userSpaceOnUse" x="11" y="10" width="93" height="17">
<path d="M11.9922 10.5002H103.992V26.5002H11.9922V10.5002Z" fill="white"/>
</mask>
<g mask="url(#mask0_6585_829046)">
<path d="M36.8927 15.7051C35.9002 15.7051 35.1122 16.0701 34.6307 16.8291V12.9751H33.0547V23.1936H34.6307V19.2816C34.6307 17.7926 35.4477 17.1796 36.4837 17.1796C37.4762 17.1796 38.1187 17.7631 38.1187 18.8726V23.1936H39.6942V18.7121C39.6942 16.8146 38.5272 15.7051 36.8927 15.7051ZM42.2672 20.2156H48.0752C48.1042 20.0111 48.1337 19.7776 48.1337 19.5586C48.1337 17.4566 46.6452 15.7051 44.4707 15.7051C42.1797 15.7051 40.6182 17.3836 40.6182 19.5441C40.6182 21.7341 42.1797 23.3831 44.5872 23.3831C46.0172 23.3831 47.1122 22.7846 47.7832 21.7921L46.4847 21.0331C46.1347 21.5441 45.4777 21.9381 44.6022 21.9381C43.4347 21.9381 42.5152 21.3541 42.2672 20.2156ZM42.2522 18.9306C42.4712 17.8361 43.2742 17.1356 44.4562 17.1356C45.4047 17.1356 46.3237 17.6756 46.5427 18.9306H42.2532H42.2522ZM54.8917 15.8951V16.9311C54.3367 16.1721 53.4762 15.7051 52.3377 15.7051C50.3527 15.7051 48.7042 17.3691 48.7042 19.5441C48.7042 21.7041 50.3532 23.3831 52.3377 23.3831C53.4762 23.3831 54.3372 22.9161 54.8917 22.1426V23.1936H56.4677V15.8946H54.8917V15.8951ZM52.5857 21.8801C51.2727 21.8801 50.2802 20.9016 50.2802 19.5441C50.2802 18.1866 51.2727 17.2086 52.5857 17.2086C53.8992 17.2086 54.8917 18.1866 54.8917 19.5441C54.8917 20.9016 53.8992 21.8801 52.5857 21.8801ZM63.7187 12.9751V16.9311C63.1642 16.1721 62.3032 15.7051 61.1647 15.7051C59.1802 15.7051 57.5312 17.3691 57.5312 19.5441C57.5312 21.7041 59.1802 23.3831 61.1647 23.3831C62.3032 23.3831 63.1642 22.9161 63.7187 22.1426V23.1936H65.2947V12.9751H63.7187ZM61.4132 21.8801C60.0997 21.8801 59.1072 20.9016 59.1072 19.5441C59.1072 18.1866 60.0997 17.2086 61.4132 17.2086C62.7262 17.2086 63.7187 18.1866 63.7187 19.5441C63.7187 20.9016 62.7262 21.8801 61.4132 21.8801ZM66.7667 23.1936H68.3432V12.5376H66.7667V23.1936ZM71.0487 20.2156H76.8567C76.8857 20.0111 76.9152 19.7776 76.9152 19.5586C76.9152 17.4566 75.4267 15.7051 73.2522 15.7051C70.9612 15.7051 69.3997 17.3836 69.3997 19.5441C69.3997 21.7341 70.9612 23.3831 73.3687 23.3831C74.7987 23.3831 75.8932 22.7846 76.5647 21.7921L75.2657 21.0331C74.9157 21.5441 74.2592 21.9381 73.3832 21.9381C72.2162 21.9381 71.2967 21.3541 71.0487 20.2156ZM71.0337 18.9306C71.2527 17.8361 72.0557 17.1356 73.2377 17.1356C74.1862 17.1356 75.1052 17.6756 75.3242 18.9306H71.0337ZM79.0672 17.9091C79.0672 17.3841 79.5637 17.1356 80.1327 17.1356C80.7312 17.1356 81.2417 17.3981 81.5047 17.9676L82.8327 17.2231C82.3217 16.2596 81.3292 15.7051 80.1327 15.7051C78.6442 15.7051 77.4622 16.5661 77.4622 17.9386C77.4622 20.5511 81.3877 19.8216 81.3877 21.1206C81.3877 21.7046 80.8477 21.9381 80.1472 21.9381C79.3447 21.9381 78.7612 21.5441 78.5277 20.8871L77.1702 21.6751C77.6372 22.7261 78.6882 23.3831 80.1472 23.3831C81.7232 23.3831 82.9932 22.5951 82.9932 21.1351C82.9932 18.4351 79.0672 19.2376 79.0672 17.9091ZM84.9872 17.9091C84.9872 17.3841 85.4837 17.1356 86.0527 17.1356C86.6507 17.1356 87.1617 17.3981 87.4242 17.9676L88.7522 17.2231C88.2417 16.2596 87.2492 15.7051 86.0527 15.7051C84.5642 15.7051 83.3822 16.5661 83.3822 17.9386C83.3822 20.5511 87.3077 19.8216 87.3077 21.1206C87.3077 21.7046 86.7677 21.9381 86.0672 21.9381C85.2647 21.9381 84.6807 21.5441 84.4472 20.8871L83.0902 21.6751C83.5572 22.7261 84.6077 23.3831 86.0672 23.3831C87.6432 23.3831 88.9127 22.5951 88.9127 21.1351C88.9127 18.4351 84.9872 19.2376 84.9872 17.9091ZM97.0082 21.5101C98.1017 21.5101 98.9112 20.8561 98.9112 19.7836V16.4386H97.9312V19.7056C97.9312 20.1886 97.6757 20.5506 97.0082 20.5506C96.3407 20.5506 96.0847 20.1886 96.0847 19.7056V16.4381H95.1122V19.7836C95.1122 20.8561 95.9217 21.5101 97.0082 21.5101ZM99.9357 16.4381V21.4101H100.916V16.4381H99.9357Z" fill="#7064F9"/>
<path fill-rule="evenodd" clip-rule="evenodd" d="M100.529 14.0533H95.4571C94.919 14.0535 94.403 14.2673 94.0225 14.6478C93.642 15.0282 93.4282 15.5442 93.4281 16.0823V21.1563C93.4282 21.6944 93.642 22.2104 94.0225 22.5909C94.403 22.9714 94.919 23.1852 95.4571 23.1853H100.529C101.067 23.1852 101.583 22.9714 101.964 22.5909C102.344 22.2104 102.558 21.6944 102.558 21.1563V16.0828C102.558 15.8163 102.506 15.5524 102.404 15.3061C102.302 15.0599 102.152 14.8361 101.964 14.6476C101.776 14.4591 101.552 14.3096 101.306 14.2075C101.059 14.1055 100.796 14.0534 100.529 14.0533ZM95.4571 13.0383C95.0574 13.0384 94.6616 13.1172 94.2924 13.2702C93.9232 13.4232 93.5877 13.6474 93.3051 13.9301C93.0226 14.2128 92.7984 14.5483 92.6455 14.9176C92.4927 15.2869 92.414 15.6827 92.4141 16.0823V21.1563C92.414 21.556 92.4927 21.9518 92.6455 22.3211C92.7984 22.6903 93.0226 23.0259 93.3051 23.3086C93.5877 23.5912 93.9232 23.8155 94.2924 23.9685C94.6616 24.1215 95.0574 24.2003 95.4571 24.2003H100.529C100.929 24.2003 101.325 24.1216 101.694 23.9686C102.063 23.8156 102.399 23.5914 102.681 23.3087C102.964 23.0261 103.188 22.6905 103.341 22.3212C103.494 21.9519 103.573 21.5561 103.573 21.1563V16.0828C103.573 15.6831 103.494 15.2872 103.341 14.9178C103.188 14.5485 102.964 14.2128 102.681 13.9301C102.399 13.6474 102.063 13.4231 101.694 13.2701C101.325 13.1171 100.929 13.0383 100.529 13.0383H95.4571Z" fill="#7064F9"/>
<path fill-rule="evenodd" clip-rule="evenodd" d="M95.4571 14.0533H100.529C101.067 14.0535 101.583 14.2673 101.964 14.6478C102.344 15.0282 102.558 15.5442 102.558 16.0823V21.1563C102.558 21.6944 102.344 22.2104 101.964 22.5909C101.583 22.9714 101.067 23.1852 100.529 23.1853H95.4571C94.919 23.1852 94.403 22.9714 94.0225 22.5909C93.642 22.2104 93.4282 21.6944 93.4281 21.1563V16.0828C93.428 15.8163 93.4804 15.5524 93.5824 15.3061C93.6843 15.0599 93.8337 14.8361 94.0221 14.6476C94.2106 14.4591 94.4342 14.3096 94.6805 14.2075C94.9267 14.1055 95.1905 14.0534 95.4571 14.0533ZM92.4141 16.0823C92.414 15.6827 92.4927 15.2869 92.6455 14.9176C92.7984 14.5483 93.0226 14.2128 93.3051 13.9301C93.5877 13.6474 93.9232 13.4232 94.2924 13.2702C94.6616 13.1172 95.0574 13.0384 95.4571 13.0383H100.529C100.929 13.0383 101.325 13.1171 101.694 13.2701C102.063 13.423 102.399 13.6473 102.681 13.9299C102.964 14.2126 103.188 14.5482 103.341 14.9175C103.494 15.2868 103.573 15.6826 103.573 16.0823V21.1563C103.573 21.5561 103.494 21.9519 103.341 22.3212C103.188 22.6905 102.964 23.0261 102.681 23.3087C102.399 23.5914 102.063 23.8156 101.694 23.9686C101.325 24.1216 100.929 24.2003 100.529 24.2003H95.4571C95.0574 24.2003 94.6616 24.1215 94.2924 23.9685C93.9232 23.8155 93.5877 23.5912 93.3051 23.3086C93.0226 23.0259 92.7984 22.6903 92.6455 22.3211C92.4927 21.9518 92.414 21.556 92.4141 21.1563V16.0828V16.0823Z" fill="#7064F9"/>
<path d="M15.2542 20.4415L25.0141 17.1825C24.8191 15.9625 24.6801 15.1475 24.5191 14.5255C24.3456 13.8565 24.2081 13.6775 24.1542 13.6155C23.966 13.4001 23.7317 13.2299 23.4686 13.1175C23.3926 13.085 23.1796 13.0095 22.4906 13.051C21.7616 13.095 20.8046 13.244 19.2891 13.484C17.7741 13.724 16.8177 13.8785 16.1112 14.0615C15.4427 14.235 15.2632 14.373 15.2012 14.427C14.9862 14.6155 14.8162 14.8495 14.7037 15.1125C14.6712 15.1885 14.5957 15.4015 14.6372 16.091C14.6812 16.82 14.8302 17.7775 15.0702 19.293C15.1372 19.718 15.1977 20.098 15.2542 20.4415Z" fill="url(#paint0_linear_6585_829046)"/>
<path fill-rule="evenodd" clip-rule="evenodd" d="M12.5584 19.6902C12.0944 16.7582 11.8619 15.2922 12.3649 14.1152C12.6271 13.5013 13.0243 12.9545 13.5269 12.5152C14.4904 11.6737 15.9559 11.4417 18.8869 10.9772C21.8189 10.5122 23.2844 10.2802 24.4619 10.7832C25.0754 11.0455 25.6219 11.4427 26.0609 11.9452C26.9029 12.9092 27.1349 14.3752 27.5989 17.3077C28.0634 20.2397 28.2954 21.7062 27.7924 22.8827C27.5303 23.4965 27.1333 24.0434 26.6309 24.4827C25.6674 25.3247 24.2014 25.5567 21.2699 26.0212C18.3389 26.4857 16.8729 26.7177 15.6964 26.2147C15.0829 25.9524 14.5363 25.5552 14.0974 25.0527C13.2554 24.0887 13.0229 22.6227 12.5584 19.6902ZM17.7289 24.8972C18.5139 24.8497 19.5249 24.6912 21.0214 24.4542C22.5184 24.2172 23.5279 24.0552 24.2899 23.8577C25.0274 23.6662 25.3674 23.4797 25.5869 23.2877C25.9098 23.0053 26.165 22.6538 26.3334 22.2592C26.4484 21.9912 26.5209 21.6102 26.4749 20.8492C26.4274 20.0642 26.2689 19.0527 26.0319 17.5557C25.7949 16.0587 25.6334 15.0482 25.4359 14.2867C25.2444 13.5487 25.0574 13.2087 24.8659 12.9892C24.5837 12.6661 24.2323 12.4108 23.8379 12.2422C23.5699 12.1272 23.1889 12.0547 22.4279 12.1007C21.6429 12.1482 20.6324 12.3067 19.1354 12.5437C17.6389 12.7812 16.6289 12.9427 15.8674 13.1402C15.1294 13.3317 14.7899 13.5187 14.5704 13.7102C14.2473 13.9926 13.992 14.3441 13.8234 14.7387C13.7089 15.0067 13.6364 15.3877 13.6824 16.1487C13.7299 16.9342 13.8879 17.9452 14.1254 19.4422C14.3624 20.9392 14.5239 21.9497 14.7214 22.7112C14.9129 23.4492 15.0994 23.7892 15.2914 24.0087C15.5736 24.3318 15.925 24.5871 16.3194 24.7557C16.5874 24.8707 16.9674 24.9432 17.7289 24.8972Z" fill="url(#paint1_linear_6585_829046)"/>
</g>
</g>
<rect x="0.5" y="0.5" width="115" height="36" rx="7.5" stroke="#E0E3E7" stroke-dasharray="4 4"/>
<defs>
<linearGradient id="paint0_linear_6585_829046" x1="18.3517" y1="10.5" x2="20.8912" y2="26.3665" gradientUnits="userSpaceOnUse">
<stop stop-color="#66E3FF"/>
<stop offset="1" stop-color="#7064F9"/>
</linearGradient>
<linearGradient id="paint1_linear_6585_829046" x1="18.3469" y1="10.5002" x2="20.8864" y2="26.3667" gradientUnits="userSpaceOnUse">
<stop stop-color="#66E3FF"/>
<stop offset="1" stop-color="#7064F9"/>
</linearGradient>
<clipPath id="clip0_6585_829046">
<rect width="92" height="16" fill="white" transform="translate(12 10.5)"/>
</clipPath>
</defs>
</svg>
